X: 363
T: The Joram
R: reel
M: C
L: 1/8
Z: 2012 John Chambers <jc:trillian.mit.edu>
B: J. Anderson "Budget of Strathspeys, Reels and Country Dances" (Early 1800s) p.36 #3
F: http://imslp.org/wiki/Anderson%27s_Budget_of_Strathspeys,_Reels_and_Country_Dances_(Various)
K: G
g | dBAG FAAc | BGBd g2(fe) | dBAG FAAB | EGFA G2G :|
d | ggfg afed | ggfg a2d2 | g2(fg) afed | egfa g2(g ||
G)| g2(fg) afed | ggfg a2d2 | (gf)(gb) agfd | egfa gfe |]

%%sep 2 1 500
%%sep 1 1 500

